!!!SOCIAL_FUNCTION:	lightning songs
!!!PDT:	1932
!!!OTL: No_46_On_Top_of_His_Own_Mountain.krn
!!!REG: Southwest
!!!LANG: Non-Tone
!!!LING_GROUP: Yuman-Cochimi
**kern
*staff1
=1-
*clefF4
*k[b-e-a-]
*M3/8
4r
16r
16E-\
=2
8E-\L
8F\
16E-\L
16E-\JJ
=3||
*M2/4
4F\
8.F\L
16E-\Jk
=4||
*M3/8
8E-\L
8F\
16E-\L
16E-\JJ
=5||
*M2/4
4F\
8F\
8r
=6
4F\
8.F\L
16E-\Jk
=7
8F\L
8F\J
8F\
8r
=8||
*M3/8
8BB-\L
8F\
16E-\L
16G\JJ
=9||
*M2/4
8F\L
8F\J
8F\
8r
=10||
*M3/8
8BB-\L
8F\
16E-\L
16G\JJ
=11||
*M2/4
8F\L
8F\J
8F\
8r
=12
4F\
8.F\L
16E-\Jk
=13
8F\L
8F\J
4F\
=14!|:
*M3/8
8F\L
8G\
16F\L
16An\JJ
=15||
*M2/4
4G\
8.G\L
16F\Jk
=16||
*M3/8
8E-\L
8F\
16E-\L
16G\JJ
=17||
*M2/4
8F\L
8F\J
8F\
8r
=18||
*M3/8
8F\L
8G\
16F\L
16An\JJ
=19||
*M2/4
4G\
8.G\L
16F\Jk
=20||
*M3/8
8E-\L
8F\
16E-\L
16G\JJ
=21||
*M2/4
8F\L
8F\J
8F\
8r
=22
4F\
8.F\L
16E-\Jk
=23
8F\L
8F\J
8F\
8r
=24||
*M3/8
8BB-\L
8F\
16E-\L
16G\JJ
=25||
*M2/4
8F\L
8F\J
8F\
8r
=26||
*M3/8
8BB-\L
8E-\
16E-\L
16G\JJ
=27||
*M2/4
8F\L
8F\J
8F\
8r
=28
4F\
8.F\L
16E-\Jk
=29
8F\L
8F\J
8F\
8r
=30:|!
=
4E-\
8E-\
8r
=31
4E-\
8E-\
8r
=32
*M3/8
8BB-^\L
8F^\
8E-^\J
=33||
*M2/4
4F\
8.F\L
16E-\Jk
=34||
*M3/8
8F\L
8G\
16E-\L
16E-\JJ
=35||
*M2/4
8F\L
8F\J
8F\
8r
=36
4F\
8.F\L
16E-\Jk
=37
8F\L
8F\J
8F\
8r
==
*-
